assets/images/yuanquan.svg

<svg xmlns="http://www.w3.org/2000/svg" preserveAspectRatio="xMidYMid" width="436" height="460" viewBox="0 0 436 460"><defs><style>.cls-1{fill:#257ca5}.cls-1,.cls-2,.cls-3,.cls-4,.cls-5,.cls-6{fill-rule:evenodd}.cls-2{fill:#22af9b}.cls-3{fill:#d0dd3c}.cls-4{fill:#f39818}.cls-5{fill:#f5d123}.cls-6{fill:#f8fbfd}</style></defs><path d="M42.804 335.392l38.617.744c29.965 34.255 73.992 55.895 123.079 55.895 13.336 0 26.294-1.608 38.704-4.622l93.785 29.768c-37.124 26.109-82.372 41.448-131.208 41.448-74.942 0-141.451-36.102-183.085-91.861l20.108-31.372z" class="cls-1"/><path d="M370.844 72.53a229.59 229.59 0 0 1 19.837 23.786L370.844 72.53zM215.762 423.077l21.877-33.821.775-.757c61.303-12.935 109.932-60.219 124.822-120.777l27.786 31.524 39.295-27.272c-16.601 89.992-85.969 161.483-174.832 181.21l-39.723-30.107z" class="cls-2"/><path d="M395.987 303.66l-31.366-41.165a165.136 165.136 0 0 0 3.316-33.011c0-47.599-20.236-90.466-52.566-120.491l29.407-59.842c54.323 41.739 89.347 107.348 89.347 181.146 0 19.642-2.482 38.703-7.147 56.89l-30.991 16.473z" class="cls-3"/><path d="M354.795 93.338l-47.12 8.499c-28.07-22.387-63.635-35.774-102.331-35.774-53.436 0-100.905 25.521-130.9 65.032l-10.069.463-48.797-21.114-3.661-.82C52.242 44.987 123.982 1.969 205.781 1.969c57.611 0 110.23 21.342 150.404 56.539l-1.39 34.83z" class="cls-4"/><path d="M162.973 28.053l-13.788 48.946c-38.527 14.323-70.045 43.042-88.024 79.621l-20.012-28.897-41.082 3.358C26.753 75.86 75.024 33.029 133.924 13.518l29.049 14.535z" class="cls-5"/><path d="M136.321 12.345l38.257 21.075-16.066 40.084-13.973 6.044 13.789-39.369-42.027-22.069 20.02-5.765z" class="cls-6"/><path d="M112.001 21.589l40.35 20.983-14.737 39.373-8.398 4.694 16.137-42.175-39.055-20.116 5.703-2.759zm244.823 36.598l1.657 43.497-42.742 7.841-12.398-10.163 41.551-8.052-2.143-44.823 14.075 11.7z" class="cls-6"/><path d="M338.315 43.888l1.657 43.561-42.497 7.202-7.053-4.631 44.554-7.534-1.738-42.214 5.077 3.616zm89.729 242.851L387.59 311.08l-26.774-35.027 3.989-17.759 26.156 34.014 40.328-22.683-3.245 17.114z" class="cls-6"/><path d="M432.514 260.772l-40.227 24.686-25.475-36.057.594-10.115 27.26 38.686 38.538-24.608-.69 7.408zM251.672 454.714l-40.027-33.369 19.484-31.898 18.524-4.235-19.363 32.575 39.514 32.557-18.132 4.37z" class="cls-6"/><path d="M275.679 448.607l-38.551-32.03 22.366-34.247 9.382-3.481-23.942 37.271 37.991 29.775-7.246 2.712z" class="cls-6"/></svg>

<svg xmlns="http://www.w3.org/2000/svg" xmlns:xlink="http://www.w3.org/1999/xlink" preserveAspectRatio="xMidYMid" width="436" height="460" viewBox="0 0 436 460">
  <defs>
    <style>
      .cls-1 {
        fill: #257ca5;
      }

      .cls-1, .cls-2, .cls-3, .cls-4, .cls-5, .cls-6 {
        fill-rule: evenodd;
      }

      .cls-2 {
        fill: #22af9b;
      }

      .cls-3 {
        fill: #d0dd3c;
      }

      .cls-4 {
        fill: #f39818;
      }

      .cls-5 {
        fill: #f5d123;
      }

      .cls-6 {
        fill: #f8fbfd;
      }
    </style>
  </defs>
  <path d="M42.804,335.392 L81.421,336.136 C111.386,370.391 155.413,392.031 204.500,392.031 C217.836,392.031 230.794,390.423 243.204,387.409 L336.989,417.177 C299.865,443.286 254.617,458.625 205.781,458.625 C130.839,458.625 64.330,422.523 22.696,366.764 L42.804,335.392 Z" class="cls-1"/>
  <path d="M370.844,72.530 C377.978,79.991 384.602,87.943 390.681,96.316 L370.844,72.530 ZM215.762,423.077 L237.639,389.256 L238.414,388.499 C299.717,375.564 348.346,328.280 363.236,267.722 L391.022,299.246 L430.317,271.974 C413.716,361.966 344.348,433.457 255.485,453.184 L215.762,423.077 Z" class="cls-2"/>
  <path d="M395.987,303.660 L364.621,262.495 C366.795,251.830 367.937,240.791 367.937,229.484 C367.937,181.885 347.701,139.018 315.371,108.993 L344.778,49.151 C399.101,90.890 434.125,156.499 434.125,230.297 C434.125,249.939 431.643,269.000 426.978,287.187 L395.987,303.660 Z" class="cls-3"/>
  <path d="M354.795,93.338 L307.675,101.837 C279.605,79.450 244.040,66.063 205.344,66.063 C151.908,66.063 104.439,91.584 74.444,131.095 L64.375,131.558 L15.578,110.444 L11.917,109.624 C52.242,44.987 123.982,1.969 205.781,1.969 C263.392,1.969 316.011,23.311 356.185,58.508 L354.795,93.338 Z" class="cls-4"/>
  <path d="M162.973,28.053 L149.185,76.999 C110.658,91.322 79.140,120.041 61.161,156.620 L41.149,127.723 L0.067,131.081 C26.753,75.860 75.024,33.029 133.924,13.518 L162.973,28.053 Z" class="cls-5"/>
  <path d="M136.321,12.345 L174.578,33.420 L158.512,73.504 L144.539,79.548 L158.328,40.179 L116.301,18.110 L136.321,12.345 Z" class="cls-6"/>
  <path d="M112.001,21.589 L152.351,42.572 L137.614,81.945 L129.216,86.639 L145.353,44.464 L106.298,24.348 L112.001,21.589 Z" class="cls-6"/>
  <path d="M356.824,58.187 L358.481,101.684 L315.739,109.525 L303.341,99.362 L344.892,91.310 L342.749,46.487 L356.824,58.187 Z" class="cls-6"/>
  <path d="M338.315,43.888 L339.972,87.449 L297.475,94.651 L290.422,90.020 L334.976,82.486 L333.238,40.272 L338.315,43.888 Z" class="cls-6"/>
  <path d="M428.044,286.739 L387.590,311.080 L360.816,276.053 L364.805,258.294 L390.961,292.308 L431.289,269.625 L428.044,286.739 Z" class="cls-6"/>
  <path d="M432.514,260.772 L392.287,285.458 L366.812,249.401 L367.406,239.286 L394.666,277.972 L433.204,253.364 L432.514,260.772 Z" class="cls-6"/>
  <path d="M251.672,454.714 L211.645,421.345 L231.129,389.447 L249.653,385.212 L230.290,417.787 L269.804,450.344 L251.672,454.714 Z" class="cls-6"/>
  <path d="M275.679,448.607 L237.128,416.577 L259.494,382.330 L268.876,378.849 L244.934,416.120 L282.925,445.895 L275.679,448.607 Z" class="cls-6"/>
</svg>
